sharp/svg/tab_unselected.svg

<svg xmlns="http://www.w3.org/2000/svg" width="24" height="24"><path fill="none" d="M0 0h24v24H0V0z"/><g fill="currentColor"><path d="M1 9h2V7H1v2zm0 4h2v-2H1v2zm8 8h2v-2H9v2zm-8-4h2v-2H1v2zm0 4h2v-2H1v2zM23 3H13v6h10V3zm-2 14h2v-2h-2v2zM9 5h2V3H9v2zM5 21h2v-2H5v2zM5 5h2V3H5v2zM1 5h2V3H1v2zm20 8h2v-2h-2v2zm-8 8h2v-2h-2v2zm4 0h2v-2h-2v2zm4 0h2v-2h-2v2z"/></g></svg>

<?xml version="1.0" encoding="utf-8"?>
<!-- Generator: Adobe Illustrator 19.1.0, SVG Export Plug-In . SVG Version: 6.00 Build 0)  -->
<svg version="1.1" xmlns="http://www.w3.org/2000/svg" xmlns:xlink="http://www.w3.org/1999/xlink" x="0px" y="0px" width="24px"
	 height="24px" viewBox="0 0 24 24" enable-background="new 0 0 24 24" xml:space="preserve">
<g id="Bounding_Boxes">
	<g id="ui_x5F_spec_x5F_header_copy_3">
	</g>
	<path fill="none" d="M0,0h24v24H0V0z"/>
</g>
<g id="Sharp" fill="currentColor">
	<g id="ui_x5F_spec_x5F_header_copy_4">
	</g>
	<path d="M1,9h2V7H1V9z M1,13h2v-2H1V13z M9,21h2v-2H9V21z M1,17h2v-2H1V17z M1,21h2v-2H1V21z M23,3H13v6h10V3z M21,17h2v-2h-2V17z
		 M9,5h2V3H9V5z M5,21h2v-2H5V21z M5,5h2V3H5V5z M1,5h2V3H1V5z M21,13h2v-2h-2V13z M13,21h2v-2h-2V21z M17,21h2v-2h-2V21z M21,21h2
		v-2h-2V21z"/>
</g>
</svg>
